svgs/themed_icon_calendar_14.svg

<svg height="192" width="192" xmlns="http://www.w3.org/2000/svg"><path d="M146 30H46c-8.837 0-16 7.163-16 16v100c0 8.837 7.163 16 16 16h75.373a16 16 0 0 0 11.313-4.686l24.628-24.628A16 16 0 0 0 162 121.373V46c0-8.837-7.163-16-16-16Z" stroke="#000" stroke-width="12" fill="none"/><path d="M64.852 120c-3.168 0-4.752-1.536-4.752-4.608 0-3.024 1.584-4.536 4.752-4.536h7.272V81.624l-5.256 3.168c-1.392.816-2.64 1.032-3.744.648s-1.944-1.104-2.52-2.16c-.576-1.056-.744-2.184-.504-3.384.24-1.248 1.032-2.304 2.376-3.168l10.008-6.048a17.78 17.78 0 0 1 3.024-1.512c1.056-.384 2.088-.576 3.096-.576 1.44 0 2.568.384 3.384 1.152.864.768 1.296 1.896 1.296 3.384v37.728h6.552c3.12 0 4.68 1.512 4.68 4.536 0 3.072-1.56 4.608-4.68 4.608H64.852Zm59.948.648c-1.776 0-3.144-.48-4.104-1.44s-1.44-2.352-1.44-4.176v-4.104h-16.128c-1.776 0-3.192-.384-4.248-1.152-1.056-.816-1.584-2.04-1.584-3.672 0-.96.216-1.92.648-2.88.432-1.008 1.2-2.28 2.304-3.816l18.648-27.144c.816-1.248 1.704-2.16 2.664-2.736 1.008-.624 2.184-.936 3.528-.936 1.584 0 2.832.48 3.744 1.44.912.912 1.368 2.304 1.368 4.176v27.936h2.664c3.216 0 4.824 1.464 4.824 4.392 0 2.928-1.608 4.392-4.824 4.392H130.2v4.104c0 1.824-.48 3.216-1.44 4.176-.912.96-2.232 1.44-3.96 1.44Zm-5.544-18.504V85.368l-11.376 16.776h11.376Z"/></svg>

<?xml version="1.0" encoding="UTF-8" standalone="no"?><svg xmlns:android="http://schemas.android.com/apk/res/android" height="192" width="192" xmlns="http://www.w3.org/2000/svg">
  <path d="M146,30H46C37.163,30 30,37.163 30,46V146C30,154.837 37.163,162 46,162H121.373C125.616,162 129.686,160.314 132.686,157.314L157.314,132.686C160.314,129.686 162,125.616 162,121.373V46C162,37.163 154.837,30 146,30Z" fill="#000000" fill-opacity="0.0" stroke="#000000" stroke-width="12"/>
  <path d="M64.852,120C61.684,120 60.1,118.464 60.1,115.392C60.1,112.368 61.684,110.856 64.852,110.856H72.124V81.624L66.868,84.792C65.476,85.608 64.228,85.824 63.124,85.44C62.02,85.056 61.18,84.336 60.604,83.28C60.028,82.224 59.86,81.096 60.1,79.896C60.34,78.648 61.132,77.592 62.476,76.728L72.484,70.68C73.492,70.056 74.5,69.552 75.508,69.168C76.564,68.784 77.596,68.592 78.604,68.592C80.044,68.592 81.172,68.976 81.988,69.744C82.852,70.512 83.284,71.64 83.284,73.128V110.856H89.836C92.956,110.856 94.516,112.368 94.516,115.392C94.516,118.464 92.956,120 89.836,120H64.852ZM124.8,120.648C123.024,120.648 121.656,120.168 120.696,119.208C119.736,118.248 119.256,116.856 119.256,115.032V110.928H103.128C101.352,110.928 99.936,110.544 98.88,109.776C97.824,108.96 97.296,107.736 97.296,106.104C97.296,105.144 97.512,104.184 97.944,103.224C98.376,102.216 99.144,100.944 100.248,99.408L118.896,72.264C119.712,71.016 120.6,70.104 121.56,69.528C122.568,68.904 123.744,68.592 125.088,68.592C126.672,68.592 127.92,69.072 128.832,70.032C129.744,70.944 130.2,72.336 130.2,74.208V102.144H132.864C136.08,102.144 137.688,103.608 137.688,106.536C137.688,109.464 136.08,110.928 132.864,110.928H130.2V115.032C130.2,116.856 129.72,118.248 128.76,119.208C127.848,120.168 126.528,120.648 124.8,120.648ZM119.256,102.144V85.368L107.88,102.144H119.256Z" fill="#000000"/>
</svg>
